X:1
T:Title
%%score 1 2 3
L:1/8
Q:1/4=120
M:4/4
K:Bb
V:1 treble nm="Picked Bass, Soprano Voice"
V:2 bass nm="Picked Bass, Tenor Voice"
V:3 bass nm="Picked Bass, Baritone Voice"
V:1
 B4 B4 | f4 d4 | B2 B2 d2 d2- | d4 z4 |[M:3/4] B4 c2 | d4 f2 | d4 c2 | B6 |[M:4/4] z4 B4 | %9
w: Soprano~Voice *|||||||||
 B2 c2 d4 | d2 c4 de | f4 f4 | d2 d2 c4 | dc B2 d4 | B2 c4 d2 | f4 d4 | B2 d2 d4 |[M:3/4] B4 c2 | %18
w: |||||||||
 d4 f2 | d4 c2 | B6 | z6 |] %22
w: ||||
V:2
 B,4 (3G,2 A,2 B,2 | C4 B,4 | D2 DC B,2 G,2- | G,4 z4 |[M:3/4] B,4 CB, | G,4 B,G, | F,4 G,A, | %7
w: Tenor~Voice * * *|||||||
 B,6 |[M:4/4] z4[K:treble] B,4 | D2 F2 F4 | GF F4 DC | B,4 B,4 | D2 F2 F4 | DC B,2 G,4 | G2 F4 DC | %15
w: ||||||||
 B,4 D4 | DC[K:bass] B,2 G,4 |[M:3/4] B,4 CB, | G,4 B,G, | F,4 G,A, | B,6 | z6 |] %22
w: |||||||
V:3
 B,,4 D,4 | F,4 B,4 | D,2 D,2 F,2 G,2- | G,4 z4 |[M:3/4] B,,4 C,2 | B,,4 D,2 | F,4 F,2 | B,,6 | %8
w: Baritone~Voice *||||||||
[M:4/4] z4 B,4 | G,2 F,2 F,4 | D,2 F,4 F,2 | B,,4 B,4 | G,2 F,2 F,4 | G,A, B,2 G,4 | D,2 F,4 F,2 | %15
w: |||||||
 B,,4 B,,4 | D,2 F,2 G,4 |[M:3/4] B,,4 C,2 | B,,4 E,2 | D,4 D,2 | B,,6 | z6 |] %22
w: |||||||

